X:32
T:Behind the Haystack
C:Traditional
M:6/8
R:jig
K:D
d2e fdB | d2e fdB | AFE (E/F/E)E | AFE (E/F/E)E |
d2e fdB | d2e fdB | AED (D/E/D)D | AED (D/E/D)D :|
|: BB/B/B BAF | ABc dcB | AFE (E/F/E)E | AFE (E/F/E)D |
BB/B/B BAF | ABc dcB | AED (D/E/D)D | AED (D/E/D)D :|
ggg fff | ede fdB | AFE (E/F/E)E | AFE (E/F/E)D |
ggg fff | ede fdB | AED (D/E/D)D | AED (D/E/D)D :|

